X:1
T: McKinnon of Dunakin
C:
R:Strathspey
Q: 128
K:A
M:4/4
L:1/16
|:e2|A3B c3d e3c ea3|fa3 g3f e3c Bc3|AA3 G3F E4 A3B|cf3 e3c B4 e4|
A3B c3d e3c ea3|fa3 g3f e3c Bc3|AA3 G3F E4 A3B|cf3 d3B A4-A3d|
ce3 e3a fd3 d3f|e3c B3A GB3 B3d|ce3 e3a f3d fa3|e3c Bc3 A4-A3d|
ce3 e3a fd3 d3f|e3f ed3 cB3 B3E|FA3 A3F E3A c3f|ecBc3 A6:|
